assets/logos/icons/stack.svg

<svg height="24" viewBox="0 0 24 24" width="24" xmlns="http://www.w3.org/2000/svg"><path d="m12 5.27272724-5.54545457 2 5.54545457 2.00000002 5.5454546-2.00000001zm.2727273-1.81818183 8.1818182 3.00000002c.8181818.27272727.8181818 1.45454546 0 1.72727273l-8.1818182 3.00000004c-.1818182.0909091-.4545455.0909091-.6363637 0l-8.18181819-3.00000004c-.81818182-.27272727-.81818182-1.45454546 0-1.72727273l8.18181819-3.00000002c.2727273-.09090909.4545455-.09090909.6363637 0zm7.6363636 7.45454549c.4545455-.1818182 1.0000001.0909091 1.1818182.5454546.1818182.4545454-.0909091 1-.5454545 1.1818181l-8.1818182 3.0000001c-.1818182.090909-.4545455.090909-.6363637 0l-8.1818182-3.0000001c-.54545455-.1818181-.72727273-.6363636-.54545455-1.1818181.18181819-.5454546.72727274-.7272728 1.18181819-.5454546l7.90909096 2.9090909zm0 4.5454546c.4545455-.1818182 1.0000001.0909091 1.1818182.5454545.1818182.4545455-.0909091 1-.5454545 1.1818182l-8.1818182 3c-.1818182.0909091-.4545455.0909091-.6363637 0l-8.1818182-3c-.45454545-.1818182-.72727273-.7272727-.54545455-1.1818182.18181819-.4545454.72727274-.7272727 1.18181819-.5454545l7.90909096 2.9090909z" fill="#492f5c" fill-rule="evenodd"/></svg>

<svg xmlns="http://www.w3.org/2000/svg" xmlns:xlink="http://www.w3.org/1999/xlink" width="24" height="24" viewBox="0 0 24 24">
  <defs>
    <path id="stack-a" d="M12,5.27272724 L6.45454543,7.27272724 L12,9.27272726 L17.5454546,7.27272725 L12,5.27272724 Z M12.2727273,3.45454541 L20.4545455,6.45454543 C21.2727273,6.7272727 21.2727273,7.90909089 20.4545455,8.18181816 L12.2727273,11.1818182 C12.0909091,11.2727273 11.8181818,11.2727273 11.6363636,11.1818182 L3.45454541,8.18181816 C2.63636359,7.90909089 2.63636359,6.7272727 3.45454541,6.45454543 L11.6363636,3.45454541 C11.9090909,3.36363632 12.0909091,3.36363632 12.2727273,3.45454541 Z M19.9090909,10.9090909 C20.3636364,10.7272727 20.909091,11 21.0909091,11.4545455 C21.2727273,11.9090909 21,12.4545455 20.5454546,12.6363636 L12.3636364,15.6363637 C12.1818182,15.7272727 11.9090909,15.7272727 11.7272727,15.6363637 L3.5454545,12.6363636 C2.99999995,12.4545455 2.81818177,12 2.99999995,11.4545455 C3.18181814,10.9090909 3.72727269,10.7272727 4.18181814,10.9090909 L12.0909091,13.8181818 L19.9090909,10.9090909 Z M19.9090909,15.4545455 C20.3636364,15.2727273 20.909091,15.5454546 21.0909091,16 C21.2727273,16.4545455 21,17 20.5454546,17.1818182 L12.3636364,20.1818182 C12.1818182,20.2727273 11.9090909,20.2727273 11.7272727,20.1818182 L3.5454545,17.1818182 C3.09090905,17 2.81818177,16.4545455 2.99999995,16 C3.18181814,15.5454546 3.72727269,15.2727273 4.18181814,15.4545455 L12.0909091,18.3636364 L19.9090909,15.4545455 Z"/>
  </defs>
  <use fill="#492F5C" fill-rule="evenodd" xlink:href="#stack-a"/>
</svg>
